src/pos-icons/menu-swap-outline.svg

<svg height="24" viewBox="0 0 24 24" width="24" xmlns="http://www.w3.org/2000/svg"><path d="m12 3.5-6 6v1.5h12v-1.5zm0 2.83 2.67 2.67h-5.34zm-6 6.67v1.5l6 6 6-6v-1.5zm3.33 2h5.34l-2.67 2.67z"/></svg>

<?xml version="1.0" encoding="UTF-8"?><!DOCTYPE svg PUBLIC "-//W3C//DTD SVG 1.1//EN" "http://www.w3.org/Graphics/SVG/1.1/DTD/svg11.dtd"><svg xmlns="http://www.w3.org/2000/svg" xmlns:xlink="http://www.w3.org/1999/xlink" version="1.1" id="mdi-menu-swap-outline" width="24" height="24" viewBox="0 0 24 24"><path d="M12,3.5L6,9.5V11H18V9.5L12,3.5M12,6.33L14.67,9H9.33L12,6.33M6,13V14.5L12,20.5L18,14.5V13H6M9.33,15H14.67L12,17.67L9.33,15Z" /></svg>
